Frontend-VBA/src/assets/images/Logo.svg

<svg width="150" height="106" viewBox="0 0 150 106" fill="none" xmlns="http://www.w3.org/2000/svg">
<path d="M66.8374 0.0315247C66.6055 0.0736771 62.959 0.305534 58.7223 0.558479C54.4855 0.790337 50.1223 1.12759 49.0263 1.29621C47.9302 1.46484 46.4969 1.65454 45.8645 1.73885C42.8293 2.0761 39.8573 2.87708 38.698 3.72021C37.2646 4.73196 33.5549 10.2966 30.8358 15.524C30.2667 16.6201 29.6343 17.7583 29.4446 18.0534C29.2338 18.3485 28.454 19.8661 27.6741 21.447C26.8942 23.0278 26.1354 24.4401 25.9667 24.5666C25.7559 24.7563 24.0275 24.8406 20.1913 24.8827C14.0365 24.967 13.6571 25.0514 12.9404 26.4847C12.4767 27.4121 12.4767 28.0866 12.9404 28.993C13.636 30.4052 14.2894 30.5949 18.6526 30.6371C20.7815 30.6582 22.6153 30.7635 22.7207 30.8689C22.9736 31.1219 22.5099 32.3233 22.0883 32.492C21.8986 32.5763 20.0648 32.7238 18.0413 32.8081C14.437 32.9768 13.2777 33.1665 12.0762 33.7988C11.2541 34.1993 9.63112 35.9488 8.07134 38.0566C6.89096 39.6585 6.59586 39.9115 5.14147 40.6492C3.28658 41.5977 2.94933 41.9771 1.89542 44.4222C0.904747 46.7408 0.630731 48.68 0.209167 56.2682C-0.170241 62.95 -0.0437715 68.4303 0.672887 77.3675L1.01014 81.562L0.504262 82.637C0.0194631 83.6698 0.0194631 83.7752 0.0194631 90.5413C0.0405413 99.0148 0.145932 99.6682 2.1062 102.071C3.22335 103.441 4.48804 104.39 5.98459 104.959C7.10174 105.38 7.62869 105.401 14.5423 105.486C18.758 105.528 22.4467 105.465 23.2266 105.338C25.1658 105.043 27.1049 104.01 28.454 102.577C30.2667 100.617 30.8147 98.9305 30.9623 95.0099C31.0255 93.1761 31.1098 92.5438 31.3627 92.3751C31.5946 92.2065 32.7539 92.1854 35.3255 92.3119C37.4754 92.3962 39.0563 92.3962 39.1617 92.2908C39.2671 92.1854 39.4146 91.6796 39.4779 91.1737C39.6043 90.2884 39.8362 90.0144 44.0518 85.9041C49.7219 80.3816 51.7454 78.5478 52.188 78.5478C52.3988 78.5478 54.1483 80.2341 56.1086 82.2787C58.0688 84.3443 60.5561 86.937 61.61 88.0541C63.8653 90.3727 63.9918 90.7521 62.8325 91.7639C62.432 92.1222 62.0948 92.5227 62.0948 92.6491C62.0948 92.9653 80.9387 92.9653 98.8341 92.6491C106.275 92.5227 113.8 92.3962 115.528 92.3962L118.69 92.3541L118.837 94.3565C119.048 97.3074 119.427 99.3942 119.912 100.469C120.144 100.996 121.029 102.092 121.873 102.935C123.222 104.284 123.58 104.516 124.95 104.938C126.447 105.401 126.721 105.423 134.498 105.423C142.403 105.423 142.529 105.423 143.984 104.917C145.248 104.495 145.691 104.179 146.956 102.914C149.801 100.09 149.991 99.2888 149.991 90.6678C149.991 84.1968 149.97 84.1125 149.464 82.8689C148.853 81.3934 148.832 81.1826 149.232 76.988C150.096 68.0087 150.223 61.7063 149.654 54.3711C149.232 48.5957 148.874 46.2139 148.241 44.9281C147.967 44.3379 147.651 43.6423 147.567 43.3472C147.272 42.3566 146.429 41.5767 144.785 40.6914C143.309 39.9115 142.993 39.6375 141.855 38.0566C139.684 35.1057 138.672 34.1361 137.133 33.5037C135.89 32.9978 135.405 32.9346 131.927 32.8081C127.859 32.6606 127.585 32.5974 127.205 31.5645C126.847 30.6582 127.184 30.5949 130.999 30.6792C134.224 30.7425 134.625 30.7003 135.573 30.2998C137.871 29.3092 137.997 26.4636 135.805 25.2621C135.215 24.946 134.456 24.9038 129.861 24.9038C126.046 24.8827 124.465 24.8195 124.107 24.6298C123.812 24.4612 123.179 23.3862 122.399 21.7842C121.725 20.372 120.629 18.2642 119.954 17.1049C119.28 15.9456 118.563 14.6176 118.331 14.1539C116.751 10.8446 112.366 4.47902 111.059 3.59373C109.795 2.72953 108.024 2.26581 104.04 1.71778C95.9042 0.621712 87.4308 0.0947571 76.3225 0.0315247C71.3481 -0.0106354 67.0692 -0.0106354 66.8374 0.0315247ZM87.5994 6.05989C88.8219 6.16528 92.0047 6.39714 94.6606 6.56577C100.036 6.9241 102.017 7.15595 106.928 8.06232C107.75 8.20986 108.783 9.34808 110.048 11.4559C110.722 12.5941 111.502 13.8799 111.776 14.3015C112.029 14.7441 112.261 15.1657 112.261 15.2711C112.261 15.3554 112.556 15.9034 112.914 16.4936C113.294 17.0627 114.01 18.3274 114.537 19.3181C115.444 21.0676 116.666 23.344 117.088 24.1028C117.847 25.4729 118.795 27.7704 118.795 28.2763C118.795 28.8243 118.753 28.8454 118.015 28.74C116.603 28.5714 112.851 27.9391 110.09 27.391C108.593 27.117 105.558 26.6954 103.345 26.4636C101.111 26.2528 98.5811 25.9788 97.7169 25.8523C93.5224 25.3254 87.2832 25.1146 75.1632 25.1146C62.4531 25.1146 57.1625 25.3043 51.6611 25.9577C50.2699 26.1263 47.614 26.4004 45.7592 26.5901C43.9043 26.7798 41.7754 27.0749 41.0166 27.2435C38.972 27.6861 33.0279 28.6347 32.0583 28.6768C31.2152 28.6979 31.2152 28.6979 31.2363 27.9601C31.2574 27.2435 32.1637 25.22 33.6181 22.5852C34.0186 21.8896 34.5034 20.9411 34.7353 20.4774C35.2201 19.5078 35.3676 19.2338 36.3372 17.5264C36.7377 16.8308 37.3279 15.7769 37.6441 15.2078C39.3092 12.1515 39.4568 11.8986 40.7636 9.85397C41.5646 8.61035 42.6817 7.95692 43.9675 7.93584C44.368 7.93584 45.4641 7.7883 46.3915 7.61967C50.1856 6.94518 50.7758 6.88194 62.9379 6.05989C64.856 5.93342 66.9849 5.78587 67.6805 5.74371C69.978 5.59617 85.344 5.82803 87.5994 6.05989ZM67.4908 30.7846C69.8094 31.8596 71.1584 33.1243 72.3598 35.2954L73.3505 37.1292V39.3424C73.3716 40.6703 73.2451 41.8718 73.0765 42.3566C72.7182 43.4105 72.8657 43.8953 73.9829 45.0756C75.9221 47.1413 75.7534 47.584 72.9711 47.7526C71.9804 47.8369 71.053 48.0055 70.9054 48.1531C70.526 48.5325 69.9359 48.4692 69.3246 47.9844C68.6712 47.4786 68.5658 47.4786 66.2682 47.9212C64.4555 48.2585 64.3923 48.2585 62.685 47.7947C59.0173 46.8251 56.1929 43.8742 55.5605 40.3331C55.4341 39.6585 55.3497 38.7733 55.3919 38.3306C55.4973 36.9605 56.0032 37.1713 58.4693 39.7007C59.7129 40.9654 61.1041 42.1669 61.5678 42.3987C63.4648 43.3262 66.205 42.6306 67.4276 40.9022C67.9334 40.1644 68.0177 39.8483 68.0599 38.4782C68.081 36.5601 67.6594 35.6958 65.6359 33.6302C63.8021 31.7542 63.1487 30.9111 63.1487 30.4685C63.1487 30.1101 63.3173 30.068 64.5398 30.068C65.657 30.068 66.205 30.1944 67.4908 30.7846ZM83.0887 45.9609C84.3955 47.2678 84.6063 47.6472 84.269 48.0898C83.7421 48.8065 80.222 51.9893 79.9691 51.9893C79.5686 51.9893 76.8495 49.2491 76.8495 48.8276C76.8495 48.3006 80.7068 44.6119 81.2759 44.6119C81.571 44.6119 82.2455 45.1178 83.0887 45.9609ZM88.569 49.0594C89.4543 49.755 90.3396 51.0197 90.3396 51.6099C90.3396 51.7996 89.7072 52.5584 88.9484 53.2961C88.1685 54.0339 87.0092 55.1721 86.3769 55.8255C85.7445 56.5 85.0278 57.0481 84.8171 57.0481C84.5852 57.0481 84.0372 56.6476 83.5945 56.1417C81.4445 53.7809 81.4024 53.7177 82.1823 52.98C82.4563 52.727 83.6367 51.5888 84.796 50.4506C85.9974 49.2913 87.1146 48.406 87.3465 48.406C87.5783 48.406 88.1263 48.7011 88.569 49.0594ZM75.5848 50.8089C76.2172 51.3991 77.5029 52.6849 78.4304 53.6545C79.3578 54.6451 80.5382 55.8677 81.0651 56.4157C84.0161 59.4299 85.2808 60.8632 85.2808 61.2426C85.2808 61.8539 83.3205 62.95 82.2666 62.95C80.9387 62.95 79.8848 62.2122 76.8706 59.1137C74.4044 56.6054 73.8986 56.1839 73.5191 56.2892C72.5285 56.6054 72.5285 57.1745 73.477 58.65C74.7838 60.6314 75.4373 62.3808 75.5427 64.1093C75.6059 65.3529 75.5216 65.8587 74.9946 67.2921C74.6574 68.2195 74.0883 69.3999 73.7089 69.9058C73.3505 70.4116 73.0554 70.9175 73.0554 71.0229C73.0554 71.4234 73.751 72.0136 74.2147 72.0136C75.2686 72.0136 77.2711 67.7979 77.6083 64.8892C77.7348 63.772 77.798 63.5823 78.1774 63.5823C78.4093 63.5823 78.7676 63.7088 78.9362 63.8774C79.2946 64.1936 81.0862 64.847 81.6132 64.847C81.7818 64.847 82.3931 65.2686 82.9411 65.7955C83.4891 66.3225 84.3323 66.8705 84.7749 67.0391C85.4916 67.271 85.6391 67.4396 85.871 68.2617C86.0607 68.9783 86.5033 69.5896 87.494 70.6013C88.8852 71.9925 89.1592 72.667 88.5268 73.0253C88.3371 73.1307 87.5151 73.8685 86.6719 74.6905C85.8499 75.4915 84.3955 76.8827 83.4259 77.789L81.6764 79.4331L78.6622 79.2856C76.3858 79.1591 75.5216 79.2013 75.1422 79.391C74.8682 79.5385 73.9829 80.3184 73.1608 81.1194C72.3598 81.8993 71.58 82.5527 71.4535 82.5527C71.0952 82.5527 61.0619 72.2665 60.7458 71.592C60.5982 71.2758 60.8933 70.8964 62.2845 69.4842C63.233 68.5357 64.0972 67.545 64.1815 67.3131C64.2869 67.0602 64.4344 64.6151 64.5188 61.8961C64.6031 59.177 64.7506 56.7319 64.856 56.4579C65.0668 55.9309 66.5844 54.3711 69.4721 51.7785C72.0015 49.481 72.128 49.4178 73.5824 49.6075C74.2147 49.6918 74.6995 49.9869 75.5848 50.8089ZM92.5528 55.7201C93.3537 56.5633 93.9229 57.3432 93.9229 57.6172C93.9229 57.9123 93.0586 58.924 91.2459 60.6946C88.5479 63.3294 86.145 65.4793 85.871 65.4793C85.6391 65.4793 85.07 64.8259 85.07 64.573C85.07 64.4254 85.5126 64.0039 86.0396 63.6034C87.3675 62.5916 88.1053 61.601 87.9577 61.0108C87.8734 60.7368 87.494 60.1676 87.0724 59.725C86.6719 59.3034 86.3347 58.8397 86.3347 58.7132C86.3347 58.6079 86.7773 58.102 87.3465 57.6172C87.8945 57.1324 88.8852 56.1839 89.5597 55.5304C90.2342 54.8559 90.8876 54.3079 90.993 54.3079C91.1194 54.3079 91.815 54.9402 92.5528 55.7201ZM11.1909 56.3103C12.1184 56.479 14.3526 56.774 16.1443 56.9427C17.9359 57.1324 19.8962 57.3853 20.4653 57.4907C21.6457 57.7226 24.2594 57.9755 30.1613 58.3971C34.1661 58.6922 35.0936 58.8819 35.8102 59.5353C36.1897 59.8725 36.9063 61.2848 37.2436 62.423C37.623 63.6034 37.8548 66.3014 37.623 66.8916L37.4122 67.4396L32.2059 67.2921C29.3392 67.2288 25.2501 67.0181 23.1001 66.8494C20.9501 66.6808 16.3129 66.3436 12.7929 66.1117C8.80907 65.8377 6.25861 65.5847 6.08998 65.4372C5.83705 65.2475 5.79489 64.3833 5.85812 60.7578C5.90028 58.3128 6.00567 56.1839 6.11106 56.0152C6.32185 55.6991 8.36643 55.8045 11.1909 56.3103ZM143.878 56.3314C144.194 57.1535 144.152 65.1632 143.815 65.4372C143.688 65.5637 142.044 65.7534 140.189 65.8798C138.335 66.0063 133.634 66.3646 129.756 66.6386C121.135 67.271 113.146 67.5872 112.598 67.3131C112.24 67.1445 112.219 66.9337 112.324 65.1842C112.451 62.8867 113.273 60.3995 114.158 59.5353C114.917 58.8186 115.971 58.6289 120.798 58.3128C126.067 57.9544 128.048 57.7647 130.599 57.4064C131.821 57.2167 133.718 56.9638 134.815 56.8373C135.911 56.7108 137.681 56.479 138.714 56.3103C140.759 55.9731 141.644 55.8677 142.888 55.8255C143.562 55.7834 143.71 55.8677 143.878 56.3314ZM95.7356 61.5377C96.6209 62.4441 97.5061 63.6666 97.5061 63.9617C97.5061 64.3411 91.9415 69.8425 90.9297 70.4749C90.6557 70.6224 89.4543 69.8004 88.6111 68.8519C87.2832 67.4185 87.3675 67.271 90.9087 63.8563C94.3866 60.526 94.6395 60.3995 95.7356 61.5377ZM97.0424 69.2734C97.4218 69.5053 97.7802 69.8425 97.8434 70.0112C97.9909 70.3906 98.9184 70.4327 99.7615 70.0955C100.078 69.969 101.068 69.8636 101.933 69.8636C106.759 69.8425 110.427 73.0043 111.291 77.9155C111.86 81.2037 111.333 81.2458 108.277 78.2106C105.01 74.9435 103.577 74.3954 101.237 75.4704C99.9723 76.0606 99.2767 76.7773 98.8551 77.9576C98.1806 79.8968 98.7498 81.815 100.584 83.7331C103.092 86.3468 103.851 87.2531 103.745 87.5271C103.598 87.9276 101.448 87.9066 100.352 87.485C99.888 87.3164 99.3189 87.1056 99.087 87.0423C98.4547 86.8526 96.115 85.1453 95.5248 84.4497C93.8596 82.4684 93.2062 79.3699 93.7964 76.3979C94.1758 74.3954 94.0915 73.9106 93.2062 73.0886C92.342 72.2665 92.4895 71.845 94.2601 70.2641C95.1243 69.4842 95.9464 68.8519 96.0939 68.8519C96.2414 68.8519 96.663 69.0416 97.0424 69.2734ZM59.3335 73.1097C60.2188 74.0371 61.5467 75.4493 62.3055 76.2081C66.5844 80.5713 70.8633 85.1875 71.0319 85.6301C71.2216 86.0938 71.0741 86.3046 69.2403 88.033C67.0903 90.0776 66.6898 90.3305 66.1629 89.8879C65.9732 89.7404 63.4438 87.1056 60.535 84.0492C57.6262 80.9718 54.6963 77.8944 54.0429 77.1988C53.3684 76.5032 52.8204 75.7655 52.8204 75.5758C52.8204 75.0699 56.7198 71.3812 57.2679 71.3812C57.5419 71.3812 58.2796 71.9925 59.3335 73.1097Z" fill="black"/>
</svg>

<svg xmlns="http://www.w3.org/2000/svg" width="150" height="106" fill="none"><path fill="#000" d="M66.837.032c-.231.042-3.878.274-8.115.526-4.236.232-8.6.57-9.696.738-1.096.169-2.53.359-3.162.443-3.035.337-6.007 1.138-7.166 1.981-1.433 1.012-5.143 6.577-7.862 11.804-.57 1.096-1.202 2.234-1.391 2.53-.211.295-.991 1.812-1.77 3.393-.78 1.58-1.54 2.993-1.708 3.12-.211.19-1.94.274-5.776.316-6.154.084-6.534.168-7.25 1.602-.464.927-.464 1.602 0 2.508.695 1.412 1.348 1.602 5.712 1.644 2.129.021 3.962.127 4.068.232.253.253-.211 1.454-.633 1.623-.19.084-2.023.232-4.047.316-3.604.169-4.763.358-5.965.99-.822.401-2.445 2.15-4.005 4.259-1.18 1.601-1.475 1.854-2.93 2.592-1.854.949-2.192 1.328-3.246 3.773C.905 46.741.631 48.68.21 56.268c-.38 6.682-.253 12.162.464 21.1l.337 4.194-.506 1.075C.02 83.67.02 83.775.02 90.541c.022 8.474.127 9.127 2.087 11.53 1.117 1.37 2.382 2.319 3.879 2.888 1.117.421 1.644.442 8.557.527 4.216.042 7.905-.021 8.685-.148 1.939-.295 3.878-1.328 5.227-2.761 1.813-1.96 2.36-3.647 2.508-7.567.064-1.834.148-2.466.4-2.635.233-.168 1.392-.19 3.963-.063 2.15.084 3.731.084 3.837-.021.105-.106.253-.611.316-1.117.126-.886.358-1.16 4.574-5.27 5.67-5.522 7.693-7.356 8.136-7.356.21 0 1.96 1.686 3.92 3.73 1.96 2.066 4.448 4.659 5.502 5.776 2.255 2.319 2.382 2.698 1.223 3.71-.401.358-.738.759-.738.885 0 .316 18.844.316 36.74 0 7.44-.126 14.965-.253 16.693-.253l3.162-.042.147 2.002c.211 2.951.59 5.038 1.075 6.113.232.527 1.117 1.623 1.961 2.466 1.349 1.349 1.707 1.581 3.077 2.003 1.497.463 1.771.485 9.548.485 7.905 0 8.031 0 9.486-.506 1.264-.422 1.707-.738 2.972-2.003 2.845-2.824 3.035-3.625 3.035-12.246 0-6.471-.021-6.556-.527-7.8-.611-1.475-.632-1.685-.232-5.88.864-8.98.991-15.282.422-22.617-.422-5.775-.78-8.157-1.413-9.443-.274-.59-.59-1.286-.674-1.58-.295-.991-1.138-1.771-2.782-2.657-1.476-.78-1.792-1.053-2.93-2.634-2.171-2.951-3.183-3.92-4.722-4.553-1.243-.506-1.728-.57-5.206-.696-4.068-.147-4.342-.21-4.722-1.244-.358-.906-.021-.97 3.794-.885 3.225.064 3.626.021 4.574-.38 2.298-.99 2.424-3.835.232-5.037-.59-.316-1.349-.358-5.944-.358-3.815-.021-5.396-.084-5.754-.274-.295-.169-.928-1.244-1.708-2.846-.674-1.412-1.77-3.52-2.445-4.68a70.178 70.178 0 0 1-1.623-2.95c-1.58-3.31-5.965-9.675-7.272-10.56-1.264-.864-3.035-1.328-7.019-1.876C95.904.622 87.43.095 76.322.032c-4.974-.043-9.253-.043-9.485 0ZM87.6 6.06c1.223.105 4.406.337 7.062.506 5.375.358 7.356.59 12.267 1.496.822.148 1.855 1.286 3.12 3.394a118.75 118.75 0 0 0 1.728 2.846c.253.442.485.864.485.97 0 .083.295.631.653 1.222.38.569 1.096 1.833 1.623 2.824.907 1.75 2.129 4.026 2.551 4.785.759 1.37 1.707 3.667 1.707 4.173 0 .548-.042.57-.78.464-1.412-.169-5.164-.8-7.925-1.349-1.497-.274-4.532-.696-6.745-.927-2.234-.211-4.764-.485-5.628-.612-4.195-.527-10.434-.737-22.554-.737-12.71 0-18 .19-23.502.843-1.391.168-4.047.442-5.902.632-1.855.19-3.984.485-4.742.654-2.045.442-7.99 1.39-8.959 1.433-.843.02-.843.02-.822-.717.021-.716.928-2.74 2.382-5.375.4-.695.885-1.644 1.117-2.108.485-.97.633-1.243 1.602-2.95.4-.696.99-1.75 1.307-2.32 1.665-3.056 1.813-3.308 3.12-5.353.8-1.244 1.918-1.897 3.203-1.918.401 0 1.497-.148 2.425-.316 3.794-.675 4.384-.738 16.546-1.56 1.918-.127 4.047-.274 4.742-.316 2.298-.148 17.664.084 19.92.316ZM67.491 30.785c2.318 1.075 3.667 2.34 4.869 4.51l.99 1.834v2.213c.022 1.328-.105 2.53-.273 3.015-.359 1.053-.211 1.538.906 2.719 1.94 2.065 1.77 2.508-1.012 2.677-.99.084-1.918.252-2.066.4-.379.38-.97.316-1.58-.169-.654-.505-.76-.505-3.057-.063-1.813.337-1.876.337-3.583-.126-3.668-.97-6.492-3.92-7.125-7.462-.126-.675-.21-1.56-.168-2.002.105-1.37.611-1.16 3.077 1.37 1.244 1.264 2.635 2.466 3.099 2.698 1.897.927 4.637.232 5.86-1.497.505-.738.59-1.054.632-2.424.021-1.918-.4-2.782-2.424-4.848-1.834-1.876-2.487-2.719-2.487-3.162 0-.358.168-.4 1.39-.4 1.118 0 1.666.126 2.952.717ZM83.089 45.96c1.306 1.307 1.517 1.686 1.18 2.129-.527.716-4.047 3.9-4.3 3.9-.4 0-3.12-2.74-3.12-3.162 0-.527 3.858-4.216 4.427-4.216.295 0 .97.506 1.813 1.349Zm5.48 3.098c.885.696 1.77 1.96 1.77 2.55 0 .19-.632.95-1.39 1.687a99.97 99.97 0 0 0-2.572 2.53c-.632.674-1.35 1.222-1.56 1.222-.232 0-.78-.4-1.222-.906-2.15-2.361-2.193-2.424-1.413-3.162.274-.253 1.455-1.391 2.614-2.53 1.201-1.159 2.319-2.044 2.55-2.044.232 0 .78.295 1.223.653Zm-12.984 1.75c.632.59 1.918 1.876 2.845 2.846.928.99 2.108 2.213 2.635 2.76 2.951 3.015 4.216 4.448 4.216 4.828 0 .61-1.96 1.707-3.014 1.707-1.328 0-2.382-.738-5.396-3.836-2.467-2.509-2.972-2.93-3.352-2.825-.99.316-.99.886-.042 2.361 1.307 1.981 1.96 3.73 2.066 5.46.063 1.243-.021 1.749-.548 3.182-.338.927-.907 2.108-1.286 2.614-.359.506-.654 1.011-.654 1.117 0 .4.696.99 1.16.99 1.054 0 3.056-4.215 3.393-7.124.127-1.117.19-1.307.57-1.307.231 0 .59.127.758.295.359.317 2.15.97 2.677.97.169 0 .78.422 1.328.949.548.526 1.391 1.075 1.834 1.243.717.232.864.4 1.096 1.223.19.716.632 1.328 1.623 2.34 1.391 1.39 1.665 2.065 1.033 2.423-.19.106-1.012.843-1.855 1.665-.822.802-2.276 2.193-3.246 3.099l-1.75 1.644-3.014-.147c-2.276-.127-3.14-.085-3.52.105-.274.147-1.16.927-1.981 1.728-.801.78-1.581 1.434-1.707 1.434-.359 0-10.392-10.287-10.708-10.961-.148-.316.147-.696 1.538-2.108.949-.948 1.813-1.939 1.898-2.17.105-.254.252-2.699.337-5.418.084-2.719.232-5.164.337-5.438.21-.527 1.728-2.087 4.616-4.68 2.53-2.297 2.656-2.36 4.11-2.17.633.084 1.118.379 2.003 1.2Zm16.968 4.911c.8.843 1.37 1.623 1.37 1.897 0 .295-.864 1.307-2.677 3.078-2.698 2.634-5.101 4.784-5.375 4.784-.232 0-.801-.653-.801-.906 0-.148.443-.57.97-.97 1.328-1.011 2.065-2.002 1.918-2.592-.085-.274-.464-.843-.886-1.286-.4-.422-.737-.885-.737-1.012 0-.105.442-.611 1.012-1.096a85.552 85.552 0 0 0 2.213-2.087c.674-.674 1.328-1.222 1.433-1.222.126 0 .822.632 1.56 1.412Zm-81.362.59c.927.169 3.162.464 4.953.633 1.792.19 3.752.442 4.321.548 1.18.232 3.794.484 9.696.906 4.005.295 4.933.485 5.65 1.138.379.338 1.095 1.75 1.433 2.888.379 1.18.61 3.878.379 4.469l-.21.548-5.207-.148c-2.867-.063-6.956-.274-9.106-.443-2.15-.168-6.787-.505-10.307-.737-3.984-.274-6.534-.527-6.703-.675-.253-.19-.295-1.054-.232-4.68.042-2.444.148-4.573.253-4.742.21-.316 2.255-.21 5.08.295Zm132.687.021c.316.822.274 8.832-.063 9.106-.127.127-1.771.316-3.626.443-1.854.126-6.555.485-10.433.759-8.621.632-16.61.948-17.158.674-.358-.169-.379-.38-.274-2.129.127-2.297.949-4.784 1.834-5.649.759-.716 1.813-.906 6.64-1.222 5.269-.359 7.25-.548 9.801-.907 1.222-.19 3.119-.442 4.216-.569 1.096-.126 2.866-.358 3.899-.527 2.045-.337 2.93-.442 4.174-.485.674-.042.822.043.99.506Zm-48.142 5.207c.885.906 1.77 2.129 1.77 2.424 0 .38-5.564 5.88-6.576 6.513-.274.147-1.476-.675-2.319-1.623-1.328-1.434-1.243-1.581 2.298-4.996 3.478-3.33 3.73-3.456 4.827-2.318Zm1.306 7.735c.38.232.738.57.801.738.148.38 1.075.422 1.918.085.317-.127 1.307-.232 2.172-.232 4.826-.022 8.494 3.14 9.358 8.051.569 3.289.042 3.33-3.014.296-3.267-3.267-4.7-3.816-7.04-2.74-1.265.59-1.96 1.306-2.382 2.487-.674 1.939-.105 3.857 1.729 5.775 2.508 2.614 3.267 3.52 3.161 3.794-.147.4-2.297.38-3.393-.042-.464-.169-1.033-.38-1.265-.443-.632-.19-2.972-1.897-3.562-2.592-1.665-1.982-2.319-5.08-1.729-8.052.38-2.003.295-2.487-.59-3.31-.864-.822-.716-1.243 1.054-2.824.864-.78 1.686-1.412 1.834-1.412.147 0 .569.19.948.421ZM59.333 73.11c.886.927 2.214 2.34 2.973 3.098 4.278 4.363 8.557 8.98 8.726 9.422.19.464.042.675-1.792 2.403-2.15 2.045-2.55 2.297-3.077 1.855-.19-.148-2.72-2.782-5.628-5.839-2.909-3.077-5.839-6.155-6.492-6.85-.675-.696-1.223-1.433-1.223-1.623 0-.506 3.9-4.195 4.448-4.195.274 0 1.012.612 2.066 1.729Z"/></svg>
